;FLAVOR:RepRap
;TIME:2294
;Filament used: 0.550527m
;Layer height: 0.1
;MINX:82.2
;MINY:82.2
;MINZ:0.3
;MAXX:117.8
;MAXY:117.8
;MAXZ:20
;Generated with Cura_SteamEngine 4.5.0
T0
M190 S60
M104 S200
M109 S200
M82 ;absolute extrusion mode
G28 ;Home
G1 Z15.0 F6000 ;Move the platform down 15mm
;Prime the extruder
G92 E0
G1 F200 E3
G92 E0
M82 ;absolute extrusion mode
T0
M83 ;relative extrusion mode
M83 ;relative extrusion mode
G1 F1500 E-6.5
;LAYER_COUNT:198
;LAYER:0
M107
G0 F3600 X84.623 Y84.349 Z0.3
;TYPE:SKIRT
G1 F1500 E6.5
G1 F1800 X85.222 Y83.834 E0.01486
G1 X85.87 Y83.383 E0.01485
G1 X86.561 Y82.999 E0.01487
G1 X87.286 Y82.687 E0.01485
G1 X88.039 Y82.45 E0.01485
G1 X88.813 Y82.291 E0.01486
G1 X89.598 Y82.21 E0.01484
G1 X110 Y82.2 E0.38377
G1 X110.789 Y82.24 E0.01486
G1 X111.569 Y82.359 E0.01484
G1 X112.334 Y82.557 E0.01486
G1 X113.074 Y82.831 E0.01484
G1 X113.783 Y83.179 E0.01486
G1 X114.454 Y83.597 E0.01487
G1 X115.078 Y84.08 E0.01484
G1 X115.651 Y84.623 E0.01485
G1 X116.166 Y85.222 E0.01486
G1 X116.617 Y85.87 E0.01485
G1 X117.001 Y86.561 E0.01487
G1 X117.313 Y87.286 E0.01485
G1 X117.55 Y88.039 E0.01485
G1 X117.709 Y88.813 E0.01486
G1 X117.79 Y89.598 E0.01484
G1 X117.8 Y110 E0.38377
G1 X117.76 Y110.789 E0.01486
G1 X117.641 Y111.569 E0.01484
G1 X117.443 Y112.334 E0.01486
G1 X117.169 Y113.074 E0.01484
G1 X116.821 Y113.783 E0.01486
G1 X116.403 Y114.454 E0.01487
G1 X115.92 Y115.078 E0.01484
G1 X115.377 Y115.651 E0.01485
G1 X114.778 Y116.166 E0.01486
G1 X114.13 Y116.617 E0.01485
G1 X113.439 Y117.001 E0.01487
G1 X112.714 Y117.313 E0.01485
G1 X111.961 Y117.55 E0.01485
G1 X111.187 Y117.709 E0.01486
G1 X110.402 Y117.79 E0.01484
G1 X90 Y117.8 E0.38377
G1 X89.211 Y117.76 E0.01486
G1 X88.431 Y117.641 E0.01484
G1 X87.666 Y117.443 E0.01486
G1 X86.926 Y117.169 E0.01484
G1 X86.217 Y116.821 E0.01486
G1 X85.546 Y116.403 E0.01487
G1 X84.922 Y115.92 E0.01484
G1 X84.349 Y115.377 E0.01485
G1 X83.834 Y114.778 E0.01486
G1 X83.383 Y114.13 E0.01485
G1 X82.999 Y113.439 E0.01487
G1 X82.687 Y112.714 E0.01485
G1 X82.45 Y111.961 E0.01485
G1 X82.291 Y111.187 E0.01486
G1 X82.21 Y110.402 E0.01484
G1 X82.2 Y90 E0.38377
G1 X82.24 Y89.211 E0.01486
G1 X82.359 Y88.431 E0.01484
G1 X82.557 Y87.666 E0.01486
G1 X82.831 Y86.926 E0.01484
G1 X83.179 Y86.217 E0.01486
G1 X83.597 Y85.546 E0.01487
G1 X84.08 Y84.922 E0.01484
G1 X84.623 Y84.349 E0.01485
G0 F3600 X85.016 Y84.53
G1 F1800 X85.611 Y84.042 E0.01448
G1 X86.253 Y83.619 E0.01446
G1 X86.936 Y83.264 E0.01448
G1 X87.651 Y82.983 E0.01445
G1 X88.393 Y82.777 E0.01449
G1 X89.151 Y82.649 E0.01446
G1 X90 Y82.6 E0.016
G1 X110 Y82.6 E0.37621
G1 X110.768 Y82.64 E0.01447
G1 X111.528 Y82.759 E0.01447
G1 X112.271 Y82.957 E0.01446
G1 X112.99 Y83.231 E0.01447
G1 X113.676 Y83.578 E0.01446
G1 X114.323 Y83.994 E0.01447
G1 X114.923 Y84.475 E0.01447
G1 X115.47 Y85.016 E0.01447
G1 X115.958 Y85.611 E0.01448
G1 X116.381 Y86.253 E0.01446
G1 X116.736 Y86.936 E0.01448
G1 X117.017 Y87.651 E0.01445
G1 X117.223 Y88.393 E0.01449
G1 X117.351 Y89.151 E0.01446
G1 X117.4 Y90 E0.016
G1 X117.4 Y110 E0.37621
G1 X117.36 Y110.768 E0.01447
G1 X117.241 Y111.528 E0.01447
G1 X117.043 Y112.271 E0.01446
G1 X116.769 Y112.99 E0.01447
G1 X116.422 Y113.676 E0.01446
G1 X116.006 Y114.323 E0.01447
G1 X115.525 Y114.923 E0.01447
G1 X114.984 Y115.47 E0.01447
G1 X114.389 Y115.958 E0.01448
G1 X113.747 Y116.381 E0.01446
G1 X113.064 Y116.736 E0.01448
G1 X112.349 Y117.017 E0.01445
G1 X111.607 Y117.223 E0.01449
G1 X110.849 Y117.351 E0.01446
G1 X110 Y117.4 E0.016
G1 X90 Y117.4 E0.37621
G1 X89.232 Y117.36 E0.01447
G1 X88.472 Y117.241 E0.01447
G1 X87.729 Y117.043 E0.01446
G1 X87.01 Y116.769 E0.01447
G1 X86.324 Y116.422 E0.01446
G1 X85.677 Y116.006 E0.01447
G1 X85.077 Y115.525 E0.01447
G1 X84.53 Y114.984 E0.01447
G1 X84.042 Y114.389 E0.01448
G1 X83.619 Y113.747 E0.01446
G1 X83.264 Y113.064 E0.01448
G1 X82.983 Y112.349 E0.01445
G1 X82.777 Y111.607 E0.01449
G1 X82.649 Y110.849 E0.01446
G1 X82.6 Y110 E0.016
G1 X82.6 Y90 E0.37621
G1 X82.64 Y89.232 E0.01447
G1 X82.759 Y88.472 E0.01447
G1 X82.957 Y87.729 E0.01446
G1 X83.231 Y87.01 E0.01447
G1 X83.578 Y86.324 E0.01446
G1 X83.994 Y85.677 E0.01447
G1 X84.475 Y85.077 E0.01447
G1 X85.016 Y84.53 E0.01447
G0 F3600 X85.408 Y84.716
G1 F1800 X85.998 Y84.257 E0.01406
G1 X86.634 Y83.862 E0.01408
G1 X87.308 Y83.538 E0.01407
G1 X88.013 Y83.288 E0.01407
G1 X88.741 Y83.114 E0.01408
G1 X89.483 Y83.019 E0.01407
G1 X90 Y83 E0.00973
G1 X110 Y83 E0.37621
G1 X110.747 Y83.04 E0.01407
G1 X111.485 Y83.159 E0.01406
G1 X112.207 Y83.357 E0.01408
G1 X112.903 Y83.63 E0.01406
G1 X113.566 Y83.977 E0.01408
G1 X114.189 Y84.392 E0.01408
G1 X114.763 Y84.871 E0.01406
G1 X115.284 Y85.408 E0.01407
G1 X115.743 Y85.998 E0.01406
G1 X116.138 Y86.634 E0.01408
G1 X116.462 Y87.308 E0.01407
G1 X116.712 Y88.013 E0.01407
G1 X116.886 Y88.741 E0.01408
G1 X116.981 Y89.483 E0.01407
G1 X117 Y90 E0.00973
G1 X117 Y110 E0.37621
G1 X116.96 Y110.747 E0.01407
G1 X116.841 Y111.485 E0.01406
G1 X116.643 Y112.207 E0.01408
G1 X116.37 Y112.903 E0.01406
G1 X116.023 Y113.566 E0.01408
G1 X115.608 Y114.189 E0.01408
G1 X115.129 Y114.763 E0.01406
G1 X114.592 Y115.284 E0.01407
G1 X114.002 Y115.743 E0.01406
G1 X113.366 Y116.138 E0.01408
G1 X112.692 Y116.462 E0.01407
G1 X111.987 Y116.712 E0.01407
G1 X111.259 Y116.886 E0.01408
G1 X110.517 Y116.981 E0.01407
G1 X110 Y117 E0.00973
G1 X90 Y117 E0.37621
G1 X89.253 Y116.96 E0.01407
G1 X88.515 Y116.841 E0.01406
G1 X87.793 Y116.643 E0.01408
G1 X87.097 Y116.37 E0.01406
G1 X86.434 Y116.023 E0.01408
G1 X85.811 Y115.608 E0.01408
G1 X85.237 Y115.129 E0.01406
G1 X84.716 Y114.592 E0.01407
G1 X84.257 Y114.002 E0.01406
G1 X83.862 Y113.366 E0.01408
G1 X83.538 Y112.692 E0.01407
G1 X83.288 Y111.987 E0.01407
G1 X83.114 Y111.259 E0.01408
G1 X83.019 Y110.517 E0.01407
G1 X83 Y110 E0.00973
G1 X83 Y90 E0.37621
G1 X83.04 Y89.253 E0.01407
G1 X83.159 Y88.515 E0.01406
G1 X83.357 Y87.793 E0.01408
G1 X83.63 Y87.097 E0.01406
G1 X83.977 Y86.434 E0.01408
G1 X84.392 Y85.811 E0.01408
G1 X84.871 Y85.237 E0.01406
G1 X85.408 Y84.716 E0.01407
G0 F3600 X85.265 Y85.402
G1 F1800 X85.799 Y84.909 E0.01367
G1 X86.384 Y84.479 E0.01366
G1 X87.013 Y84.115 E0.01367
G1 X87.678 Y83.822 E0.01367
G1 X88.371 Y83.604 E0.01367
G1 X89.083 Y83.464 E0.01365
G1 X90 Y83.4 E0.01729
G1 X110 Y83.4 E0.37621
G1 X110.725 Y83.44 E0.01366
G1 X111.442 Y83.559 E0.01367
G1 X112.141 Y83.757 E0.01367
G1 X112.814 Y84.03 E0.01366
G1 X113.453 Y84.375 E0.01366
G1 X114.05 Y84.789 E0.01367
G1 X114.598 Y85.265 E0.01365
G1 X115.091 Y85.799 E0.01367
G1 X115.521 Y86.384 E0.01366
G1 X115.885 Y87.013 E0.01367
G1 X116.178 Y87.678 E0.01367
G1 X116.396 Y88.371 E0.01367
G1 X116.536 Y89.083 E0.01365
G1 X116.6 Y90 E0.01729
G1 X116.6 Y110 E0.37621
G1 X116.56 Y110.725 E0.01366
G1 X116.441 Y111.442 E0.01367
G1 X116.243 Y112.141 E0.01367
G1 X115.97 Y112.814 E0.01366
G1 X115.625 Y113.453 E0.01366
G1 X115.211 Y114.05 E0.01367
G1 X114.735 Y114.598 E0.01365
G1 X114.201 Y115.091 E0.01367
G1 X113.616 Y115.521 E0.01366
G1 X112.987 Y115.885 E0.01367
G1 X112.322 Y116.178 E0.01367
G1 X111.629 Y116.396 E0.01367
G1 X110.917 Y116.536 E0.01365
G1 X110 Y116.6 E0.01729
G1 X90 Y116.6 E0.37621
G1 X89.275 Y116.56 E0.01366
G1 X88.558 Y116.441 E0.01367
G1 X87.859 Y116.243 E0.01367
G1 X87.186 Y115.97 E0.01366
G1 X86.547 Y115.625 E0.01366
G1 X85.95 Y115.211 E0.01367
G1 X85.402 Y114.735 E0.01365
G1 X84.909 Y114.201 E0.01367
G1 X84.479 Y113.616 E0.01366
G1 X84.115 Y112.987 E0.01367
G1 X83.822 Y112.322 E0.01367
G1 X83.604 Y111.629 E0.01367
G1 X83.464 Y110.917 E0.01365
G1 X83.4 Y110 E0.01729
G1 X83.4 Y90 E0.37621
G1 X83.44 Y89.275 E0.01366
G1 X83.559 Y88.558 E0.01367
G1 X83.757 Y87.859 E0.01367
G1 X84.03 Y87.186 E0.01366
G1 X84.375 Y86.547 E0.01366
G1 X84.789 Y85.95 E0.01367
G1 X85.265 Y85.402 E0.01365
G0 F3600 X85.659 Y85.573
G1 F1800 X86.189 Y85.109 E0.01325
G1 X86.768 Y84.709 E0.01324
G1 X87.389 Y84.377 E0.01325
G1 X88.043 Y84.117 E0.01324
G1 X88.723 Y83.933 E0.01325
G1 X89.419 Y83.827 E0.01324
G1 X90 Y83.8 E0.01094
G1 X110 Y83.8 E0.37621
G1 X110.703 Y83.84 E0.01325
G1 X111.397 Y83.959 E0.01325
G1 X112.072 Y84.157 E0.01323
G1 X112.721 Y84.429 E0.01324
G1 X113.335 Y84.774 E0.01325
G1 X113.906 Y85.185 E0.01323
G1 X114.427 Y85.659 E0.01325
G1 X114.891 Y86.189 E0.01325
G1 X115.291 Y86.768 E0.01324
G1 X115.623 Y87.389 E0.01325
G1 X115.883 Y88.043 E0.01324
G1 X116.067 Y88.723 E0.01325
G1 X116.173 Y89.419 E0.01324
G1 X116.2 Y90 E0.01094
G1 X116.2 Y110 E0.37621
G1 X116.16 Y110.703 E0.01325
G1 X116.041 Y111.397 E0.01325
G1 X115.843 Y112.072 E0.01323
G1 X115.571 Y112.721 E0.01324
G1 X115.226 Y113.335 E0.01325
G1 X114.815 Y113.906 E0.01323
G1 X114.341 Y114.427 E0.01325
G1 X113.811 Y114.891 E0.01325
G1 X113.232 Y115.291 E0.01324
G1 X112.611 Y115.623 E0.01325
G1 X111.957 Y115.883 E0.01324
G1 X111.277 Y116.067 E0.01325
G1 X110.581 Y116.173 E0.01324
G1 X110 Y116.2 E0.01094
G1 X90 Y116.2 E0.37621
G1 X89.297 Y116.16 E0.01325
G1 X88.603 Y116.041 E0.01325
G1 X87.928 Y115.843 E0.01323
G1 X87.279 Y115.571 E0.01324
G1 X86.665 Y115.226 E0.01325
G1 X86.094 Y114.815 E0.01323
G1 X85.573 Y114.341 E0.01325
G1 X85.109 Y113.811 E0.01325
G1 X84.709 Y113.232 E0.01324
G1 X84.377 Y112.611 E0.01325
G1 X84.117 Y111.957 E0.01324
G1 X83.933 Y111.277 E0.01325
G1 X83.827 Y110.581 E0.01324
G1 X83.8 Y110 E0.01094
G1 X83.8 Y90 E0.37621
G1 X83.84 Y89.297 E0.01325
G1 X83.959 Y88.603 E0.01325
G1 X84.157 Y87.928 E0.01323
G1 X84.429 Y87.279 E0.01324
G1 X84.774 Y86.665 E0.01325
G1 X85.185 Y86.094 E0.01323
G1 X85.659 Y85.573 E0.01325
G0 F3600 X86.053 Y85.751
G1 F1800 X86.578 Y85.317 E0.01281
G1 X87.15 Y84.948 E0.0128
G1 X87.762 Y84.649 E0.01281
G1 X88.404 Y84.424 E0.0128
G1 X89.069 Y84.275 E0.01282
G1 X90 Y84.2 E0.01757
G1 X110 Y84.2 E0.37621
G1 X110.68 Y84.24 E0.01281
G1 X111.35 Y84.359 E0.0128
G1 X112.002 Y84.556 E0.01281
G1 X112.626 Y84.828 E0.0128
G1 X113.214 Y85.172 E0.01281
G1 X113.758 Y85.582 E0.01281
G1 X114.249 Y86.053 E0.0128
G1 X114.683 Y86.578 E0.01281
G1 X115.052 Y87.15 E0.0128
G1 X115.351 Y87.762 E0.01281
G1 X115.576 Y88.404 E0.0128
G1 X115.725 Y89.069 E0.01282
G1 X115.8 Y90 E0.01757
G1 X115.8 Y110 E0.37621
G1 X115.76 Y110.68 E0.01281
G1 X115.641 Y111.35 E0.0128
G1 X115.444 Y112.002 E0.01281
G1 X115.172 Y112.626 E0.0128
G1 X114.828 Y113.214 E0.01281
G1 X114.418 Y113.758 E0.01281
G1 X113.947 Y114.249 E0.0128
G1 X113.422 Y114.683 E0.01281
G1 X112.85 Y115.052 E0.0128
G1 X112.238 Y115.351 E0.01281
G1 X111.596 Y115.576 E0.0128
G1 X110.931 Y115.725 E0.01282
G1 X110 Y115.8 E0.01757
G1 X90 Y115.8 E0.37621
G1 X89.32 Y115.76 E0.01281
G1 X88.65 Y115.641 E0.0128
G1 X87.998 Y115.444 E0.01281
G1 X87.374 Y115.172 E0.0128
G1 X86.786 Y114.828 E0.01281
G1 X86.242 Y114.418 E0.01281
G1 X85.751 Y113.947 E0.0128
G1 X85.317 Y113.422 E0.01281
G1 X84.948 Y112.85 E0.0128
G1 X84.649 Y112.238 E0.01281
G1 X84.424 Y111.596 E0.0128
G1 X84.275 Y110.931 E0.01282
G1 X84.2 Y110 E0.01757
G1 X84.2 Y90 E0.37621
G1 X84.24 Y89.32 E0.01281
G1 X84.359 Y88.65 E0.0128
G1 X84.556 Y87.998 E0.01281
G1 X84.828 Y87.374 E0.0128
G1 X85.172 Y86.786 E0.01281
G1 X85.582 Y86.242 E0.01281
G1 X86.053 Y85.751 E0.0128
G0 F3600 X86.445 Y85.935
G1 F1800 X86.965 Y85.534 E0.01235
G1 X87.529 Y85.198 E0.01235
G1 X88.131 Y84.934 E0.01236
G1 X88.76 Y84.744 E0.01236
G1 X89.407 Y84.633 E0.01235
G1 X90 Y84.6 E0.01117
G1 X110 Y84.6 E0.37621
G1 X110.656 Y84.64 E0.01236
G1 X111.302 Y84.759 E0.01236
G1 X111.929 Y84.956 E0.01236
G1 X112.527 Y85.228 E0.01236
G1 X113.088 Y85.57 E0.01236
G1 X113.603 Y85.978 E0.01236
G1 X114.065 Y86.445 E0.01236
G1 X114.466 Y86.965 E0.01235
G1 X114.802 Y87.529 E0.01235
G1 X115.066 Y88.131 E0.01236
G1 X115.256 Y88.76 E0.01236
G1 X115.367 Y89.407 E0.01235
G1 X115.4 Y90 E0.01117
G1 X115.4 Y110 E0.37621
G1 X115.36 Y110.656 E0.01236
G1 X115.241 Y111.302 E0.01236
G1 X115.044 Y111.929 E0.01236
G1 X114.772 Y112.527 E0.01236
G1 X114.43 Y113.088 E0.01236
G1 X114.022 Y113.603 E0.01236
G1 X113.555 Y114.065 E0.01236
G1 X113.035 Y114.466 E0.01235
G1 X112.471 Y114.802 E0.01235
G1 X111.869 Y115.066 E0.01236
G1 X111.24 Y115.256 E0.01236
G1 X110.593 Y115.367 E0.01235
G1 X110 Y115.4 E0.01117
G1 X90 Y115.4 E0.37621
G1 X89.344 Y115.36 E0.01236
G1 X88.698 Y115.241 E0.01236
G1 X88.071 Y115.044 E0.01236
G1 X87.473 Y114.772 E0.01236
G1 X86.912 Y114.43 E0.01236
G1 X86.397 Y114.022 E0.01236
G1 X85.935 Y113.555 E0.01236
G1 X85.534 Y113.035 E0.01235
G1 X85.198 Y112.471 E0.01235
G1 X84.934 Y111.869 E0.01236
G1 X84.744 Y111.24 E0.01236
G1 X84.633 Y110.593 E0.01235
G1 X84.6 Y110 E0.01117
G1 X84.6 Y90 E0.37621
G1 X84.64 Y89.344 E0.01236
G1 X84.759 Y88.698 E0.01236
G1 X84.956 Y88.071 E0.01236
G1 X85.228 Y87.473 E0.01236
G1 X85.57 Y86.912 E0.01236
G1 X85.978 Y86.397 E0.01236
G1 X86.445 Y85.935 E0.01236
G0 F3600 X86.373 Y86.559
G1 F1800 X86.836 Y86.129 E0.01189
G1 X87.35 Y85.76 E0.0119
G1 X87.906 Y85.46 E0.01188
G1 X88.495 Y85.232 E0.01188
G1 X89.109 Y85.08 E0.0119
G1 X90 Y85 E0.01683
G1 X110 Y85 E0.37621
G1 X110.631 Y85.04 E0.01189
G1 X111.252 Y85.159 E0.01189
G1 X111.852 Y85.356 E0.01188
G1 X112.424 Y85.627 E0.01191
G1 X112.956 Y85.967 E0.01188
G1 X113.441 Y86.373 E0.0119
G1 X113.871 Y86.836 E0.01189
G1 X114.24 Y87.35 E0.0119
G1 X114.54 Y87.906 E0.01188
G1 X114.768 Y88.495 E0.01188
G1 X114.92 Y89.109 E0.0119
G1 X115 Y90 E0.01683
G1 X115 Y110 E0.37621
G1 X114.96 Y110.631 E0.01189
G1 X114.841 Y111.252 E0.01189
G1 X114.644 Y111.852 E0.01188
G1 X114.373 Y112.424 E0.01191
G1 X114.033 Y112.956 E0.01188
G1 X113.627 Y113.441 E0.0119
G1 X113.164 Y113.871 E0.01189
G1 X112.65 Y114.24 E0.0119
G1 X112.094 Y114.54 E0.01188
G1 X111.505 Y114.768 E0.01188
G1 X110.891 Y114.92 E0.0119
G1 X110 Y115 E0.01683
G1 X90 Y115 E0.37621
G1 X89.369 Y114.96 E0.01189
G1 X88.748 Y114.841 E0.01189
G1 X88.148 Y114.644 E0.01188
G1 X87.576 Y114.373 E0.01191
G1 X87.044 Y114.033 E0.01188
G1 X86.559 Y113.627 E0.0119
G1 X86.129 Y113.164 E0.01189
G1 X85.76 Y112.65 E0.0119
G1 X85.46 Y112.094 E0.01188
G1 X85.232 Y111.505 E0.01188
G1 X85.08 Y110.891 E0.0119
G1 X85 Y110 E0.01683
G1 X85 Y90 E0.37621
G1 X85.04 Y89.369 E0.01189
G1 X85.159 Y88.748 E0.01189
G1 X85.356 Y88.148 E0.01188
G1 X85.627 Y87.576 E0.01191
G1 X85.967 Y87.044 E0.01188
G1 X86.373 Y86.559 E0.0119
G0 F3600 X86.767 Y86.728
G1 F1800 X87.225 Y86.331 E0.0114
G1 X87.732 Y85.998 E0.01141
G1 X88.278 Y85.734 E0.01141
G1 X88.854 Y85.545 E0.0114
G1 X89.45 Y85.433 E0.01141
G1 X90 Y85.4 E0.01036
G1 X110 Y85.4 E0.37621
G1 X110.605 Y85.44 E0.01141
G1 X111.199 Y85.559 E0.0114
G1 X111.773 Y85.755 E0.01141
G1 X112.316 Y86.026 E0.01142
G1 X112.819 Y86.365 E0.01141
G1 X113.272 Y86.767 E0.01139
G1 X113.669 Y87.225 E0.0114
G1 X114.002 Y87.732 E0.01141
G1 X114.266 Y88.278 E0.01141
G1 X114.455 Y88.854 E0.0114
G1 X114.567 Y89.45 E0.01141
G1 X114.6 Y90 E0.01036
G1 X114.6 Y110 E0.37621
G1 X114.56 Y110.605 E0.01141
G1 X114.441 Y111.199 E0.0114
G1 X114.245 Y111.773 E0.01141
G1 X113.974 Y112.316 E0.01142
G1 X113.635 Y112.819 E0.01141
G1 X113.233 Y113.272 E0.01139
G1 X112.775 Y113.669 E0.0114
G1 X112.268 Y114.002 E0.01141
G1 X111.722 Y114.266 E0.01141
G1 X111.146 Y114.455 E0.0114
G1 X110.55 Y114.567 E0.01141
G1 X110 Y114.6 E0.01036
G1 X90 Y114.6 E0.37621
G1 X89.395 Y114.56 E0.01141
G1 X88.801 Y114.441 E0.0114
G1 X88.227 Y114.245 E0.01141
G1 X87.684 Y113.974 E0.01142
G1 X87.181 Y113.635 E0.01141
G1 X86.728 Y113.233 E0.01139
G1 X86.331 Y112.775 E0.0114
G1 X85.998 Y112.268 E0.01141
G1 X85.734 Y111.722 E0.01141
G1 X85.545 Y111.146 E0.0114
G1 X85.433 Y110.55 E0.01141
G1 X85.4 Y110 E0.01036
G1 X85.4 Y90 E0.37621
G1 X85.44 Y89.395 E0.01141
G1 X85.559 Y88.801 E0.0114
G1 X85.755 Y88.227 E0.01141
G1 X86.026 Y87.684 E0.01142
